svgs/arrows/expand-05.svg

<svg fill="none" xmlns="http://www.w3.org/2000/svg" viewBox="0 0 24 24"><path d="m15 9 6-6m0 0h-6m6 0v6M9 9 3 3m0 0v6m0-6h6m0 12-6 6m0 0h6m-6 0v-6m12 0 6 6m0 0v-6m0 6h-6" stroke="#1C1D20" stroke-width="1.5" stroke-linecap="round" stroke-linejoin="round"/></svg>

<svg width="24" height="24" viewBox="0 0 24 24" fill="none" xmlns="http://www.w3.org/2000/svg">
<path d="M15 9L21 3M21 3H15M21 3V9M9 9L3 3M3 3L3 9M3 3L9 3M9 15L3 21M3 21H9M3 21L3 15M15 15L21 21M21 21V15M21 21H15" stroke="#1C1D20" stroke-width="1.5" stroke-linecap="round" stroke-linejoin="round"/>
</svg>
